X: 2041
T: LORD BLANTYRE
Q: "Strathspey."
R: strathspey
B: Kerr's v.2 p.7 #41
Z: 2016 John Chambers <jc:trillian.mit.edu>
M: C
L: 1/16
K: A
e2 |\
(cde2) (A3e) (ce3) a4 | (fd3) =g4 B=G3G3B |\
(cde2) (A3e) (ce3) a3e | =g3d Be3 cA3 A2 :|\
e2 |:\
(cde2) a4 (agfe) a4 |
(Bd3) =g4 B=G3G3B |\
[1 (cde2) a4 (gb3) a4 | e3aga3 aA3A3e :|\
[2 c3ed3f e3=gf3a | =g3ea3e cA3 A2 |]

%%sep 1 1 500
%%sep 1 1 500

